packages/tokens/icons/web/size24Px.svg

<svg viewBox="0 0 24 24" fill="none" xmlns="http://www.w3.org/2000/svg" width="1em" height="1em"><circle cx="12" cy="12" r="9.5" stroke="currentColor"/><path d="M19.1426 18.376C17.2123 17.516 14.7458 17.0001 12.0581 17.0001C9.31606 17.0001 6.80409 17.5371 4.85693 18.4287" stroke="currentColor"/><path d="M2 11.5L21 11.5" stroke="currentColor"/><path d="M19.1426 5.624C17.2123 6.48399 14.7458 6.99986 12.0581 6.99986C9.31606 6.99986 6.80409 6.46286 4.85693 5.57129" stroke="currentColor"/><path d="M12 2.5C9.01099 4.46652 7 7.79023 7 12C7 16.2098 9.01099 19.5335 12 21.5" stroke="currentColor"/><path d="M12 2.35742L12 21.6431" stroke="currentColor"/><path d="M12 2.5C14.989 4.46652 17 7.79023 17 12C17 16.2098 14.989 19.5335 12 21.5" stroke="currentColor"/></svg>

<svg xmlns="http://www.w3.org/2000/svg" fill="none" viewBox="0 0 24 24" width="1em" height="1em"><circle cx="12" cy="12" r="9.5" stroke="currentColor"/><path stroke="currentColor" d="M19.143 18.376c-1.93-.86-4.397-1.376-7.085-1.376-2.742 0-5.254.537-7.201 1.429M2 11.5h19m-1.857-5.876C17.213 6.484 14.746 7 12.058 7c-2.742 0-5.254-.537-7.201-1.43"/><path stroke="currentColor" d="M12 2.5C9.011 4.467 7 7.79 7 12s2.011 7.534 5 9.5m0-19.143v19.286M12 2.5c2.989 1.967 5 5.29 5 9.5s-2.011 7.534-5 9.5"/></svg>
